X:58
T:Ballydesmond Polka \#3, The
T:Tom Billy's
M:2/4
Z:Boston
R:polka
E:12
K:G
AB|c4 B4|A2BA G3A|B2d2e2d2|g6 z d|e2a2 gage|d2B2 G2AB|c2e2 d2B2|A6:|
e2a2 a2ag|d2g2 g4|e2a2 a2b2|g6 z d|e2a2 gage|d2B2 G2AB|c2e2 d2B2|A4 A4:|
<end>
<start>
